X:1
T:Ave Maria - Franz Schubert
T:Ave Maria - Franz Schubert
T:for Violin and Cello
T:Arr
C:Arr
%%score 1 2
L:1/8
Q:1/4=60
M:4/4
K:Bb
V:1 treble nm="Violino" snm="Vno."
V:2 bass nm="Violoncelo" snm="Vc."
V:1
"^\n" z8 | z8 | z8 | z8 | B6- (3BAB | d6 c2 | B6 z2 | c4 (3cBA (3cGA | B4 z2 d2 | %9
 d2 (3dcB (3:2:2A2 B (3d3/2B/=e | d4 ^c2- (3c z A | c2 (3:2:2c2 B (3Acd (3ecA | B4 z2 z c | %13
 c4 (3G=Bd (3fdB | c6 z2 | z8 | c3 c c>=B c>d | c2 B4 z B | c4- (3c=Bc (3edc | B4 z2 B2 | %20
 c2 (3:2:2c2 c d2 (3dcd | f2 e4 z2 | d2- (3:2:2d2 c (3BAB (3_dcB | d6 z2 | B6- (3BAB | d6 c2 | %26
 B6 z2 | z8 | z8 | z8 | z8 | D8 | !fermata!D8 |] %33
V:2
 (3B,,F,B, (3DB,F, (3B,,F,B, (3DB,F, | (3B,,B,D (3FDB, (3B,,DF (3^GFD | %2
 (3B,,B,E (3GEB, (3B,,A,E (3_GEA, | (3B,,B,D (3FDB, (3B,,F,B, (3DB,F, | %4
 (3B,,F,B, (3DB,F, (3G,,=E,G, (3DG,E, | (3F,,F,B, (3DB,F, (3F,,A,C (3ECA, | %6
 (3G,,G,B, (3DB,G, (3G,,G,B, (3DB,G, | (3E,G,C (3ECG, [F,A,]4 | %8
 (3B,,F,B, (3DB,F, (3B,,F,B, (3DB,F, | (3B,,^F,B, (3DB,F, (3B,,G,B, (3DB,G, | %10
 (3A,,G,B, (3DB,G, (3A,,G,A, (3^CA,G, | (3^F,B,C (3ECB, (3^F,,B,C (3ECB, | %12
 (3G,,G,B, (3DB,G, (3G,,=E,B, (3DB,E, | (3A,,F,A, (3CA,F, (3D,F,=B, (3DB,G, | %14
 (3C,A,C (3FCA, (3C,B,C (3=ECB, | (3F,A,C (3FCA, (3F,A,C (3FCB, | (3F,A,C (3FCA, (3F,A,C (3FCA, | %17
 (3F,B,D (3FDB, (3F,B,D (3FDB, | (3F,A,C (3ECA, (3F,A,C (3ECA, | %19
 (3G,G,B, (3DB,G, (3G,D,G, (3B,G,D, | (3F,F,A, (3CA,F, (3D,^F,A, (3DA,F, | %21
 (3C,G,C (3ECG, (3C,G,C (3ECG, | (3E,E,G, (3CG,E, (3G,=E,B, (3_DB,E, | %23
 (3F,F,A, (3CA,F, (3F,,F,A, (3CA,F, | (3B,,F,B, (3DB,F, (3G,,=E,G, (3DG,E, | %25
 (3F,,F,B, (3DB,F, (3F,,A,C (3ECA, | (3B,,F,B, (3DB,F, (3B,,F,B, (3DB,F, | %27
 (3B,,B,D (3FDB, (3B,,DF (3^GFD | (3B,,B,E (3GEB, (3B,,A,E (3^FEA, | %29
 (3B,,B,D (3FDB, (3B,,F,B, (3DB,F, |"^rit..." (3B,,D,F, (3B,F,D, (3B,,B,,D, (3F,D,B,, | B,,8 | %32
 !fermata!B,,8 |] %33

